html/app/assets/img/ui/ghost.svg

<svg fill="none" height="128" viewBox="0 0 100 128" width="100" xmlns="http://www.w3.org/2000/svg"><g clip-rule="evenodd" fill="#94849f" fill-rule="evenodd"><path d="m64.5801 127.42-6.5801-6.6-6.58 6.6c-.78.78-2.0599.78-2.8399 0l-6.5801-6.6-6.5801 6.6c-.78.78-2.0598.78-2.8398 0l-6.5801-6.6-6.5801 6.6c-.78.78-2.0598.78-2.8398 0l-6.5801-6.6-6.58008 6.6c-.58.56-1.43993.74-2.17993.42-.759999-.3-1.23999-1.04-1.23999-1.84v-76c0-27.6 22.4-50 50-50 27.6001 0 50 22.4 50 50v76c0 .8-.4799 1.54-1.2399 1.84-.74.32-1.6.14-2.18-.42l-6.58-6.6-6.5801 6.6c-.78.78-2.0599.78-2.8399 0l-6.58-6.6-6.5801 6.6c-.78.78-2.0599.78-2.8399 0zm1.4199-4.24 6.5801-6.6c.78-.78 2.0599-.78 2.8399 0l6.5801 6.6 6.58-6.6c.78-.78 2.0599-.78 2.8399 0l4.5801 4.6v-71.18c0-25.4-20.6-46-46.0001-46-25.4 0-46 20.6-46 46v71.18l4.58008-4.6c.78-.78 2.05982-.78 2.83982 0l6.5801 6.6 6.5801-6.6c.78-.78 2.0598-.78 2.8398 0l6.5801 6.6 6.5801-6.6c.78-.78 2.0599-.78 2.8399 0l6.58 6.6 6.5801-6.6c.78-.78 2.0599-.78 2.8399 0z"/><path d="m32 88.0001h36v4h-36z"/><path d="m46 56.0001c0 7.72-6.28 14-14 14s-14-6.28-14-14 6.28-14 14-14 14 6.28 14 14zm-4 0c0-5.52-4.48-10-10-10s-10 4.48-10 10 4.48 10 10 10 10-4.48 10-10z"/><path d="m25 51.84h4v8.334h-4z"/><path d="m82 56.0001c0 7.72-6.28 14-14 14s-14-6.28-14-14 6.28-14 14-14 14 6.28 14 14zm-4 0c0-5.52-4.48-10-10-10s-10 4.48-10 10 4.48 10 10 10 10-4.48 10-10z"/><path d="m61 51.84h4v8.334h-4z"/></g></svg>

<svg width="100" height="128" viewBox="0 0 100 128" fill="none" xmlns="http://www.w3.org/2000/svg">
<path fill-rule="evenodd" clip-rule="evenodd" d="M64.5801 127.42L58 120.82L51.42 127.42C50.64 128.2 49.3601 128.2 48.5801 127.42L42 120.82L35.4199 127.42C34.6399 128.2 33.3601 128.2 32.5801 127.42L26 120.82L19.4199 127.42C18.6399 128.2 17.3601 128.2 16.5801 127.42L10 120.82L3.41992 127.42C2.83992 127.98 1.97999 128.16 1.23999 127.84C0.479991 127.54 0 126.8 0 126V50C0 22.4 22.4 0 50 0C77.6001 0 100 22.4 100 50V126C100 126.8 99.5201 127.54 98.7601 127.84C98.0201 128.16 97.1601 127.98 96.5801 127.42L90.0001 120.82L83.42 127.42C82.64 128.2 81.3601 128.2 80.5801 127.42L74.0001 120.82L67.42 127.42C66.64 128.2 65.3601 128.2 64.5801 127.42ZM66 123.18L72.5801 116.58C73.3601 115.8 74.64 115.8 75.42 116.58L82.0001 123.18L88.5801 116.58C89.3601 115.8 90.64 115.8 91.42 116.58L96.0001 121.18V50C96.0001 24.6 75.4001 4 50 4C24.6 4 4 24.6 4 50V121.18L8.58008 116.58C9.36008 115.8 10.6399 115.8 11.4199 116.58L18 123.18L24.5801 116.58C25.3601 115.8 26.6399 115.8 27.4199 116.58L34 123.18L40.5801 116.58C41.3601 115.8 42.64 115.8 43.42 116.58L50 123.18L56.5801 116.58C57.3601 115.8 58.64 115.8 59.42 116.58L66 123.18Z" fill="#94849F"/>
<path fill-rule="evenodd" clip-rule="evenodd" d="M32 88.0001H68V92.0001H32V88.0001Z" fill="#94849F"/>
<path fill-rule="evenodd" clip-rule="evenodd" d="M46 56.0001C46 63.7201 39.72 70.0001 32 70.0001C24.28 70.0001 18 63.7201 18 56.0001C18 48.2801 24.28 42.0001 32 42.0001C39.72 42.0001 46 48.2801 46 56.0001ZM42 56.0001C42 50.4801 37.52 46.0001 32 46.0001C26.48 46.0001 22 50.4801 22 56.0001C22 61.5201 26.48 66.0001 32 66.0001C37.52 66.0001 42 61.5201 42 56.0001Z" fill="#94849F"/>
<path fill-rule="evenodd" clip-rule="evenodd" d="M25 51.84H29V60.174H25V51.84Z" fill="#94849F"/>
<path fill-rule="evenodd" clip-rule="evenodd" d="M82 56.0001C82 63.7201 75.72 70.0001 68 70.0001C60.28 70.0001 54 63.7201 54 56.0001C54 48.2801 60.28 42.0001 68 42.0001C75.72 42.0001 82 48.2801 82 56.0001ZM78 56.0001C78 50.4801 73.52 46.0001 68 46.0001C62.48 46.0001 58 50.4801 58 56.0001C58 61.5201 62.48 66.0001 68 66.0001C73.52 66.0001 78 61.5201 78 56.0001Z" fill="#94849F"/>
<path fill-rule="evenodd" clip-rule="evenodd" d="M61 51.84H65V60.174H61V51.84Z" fill="#94849F"/>
</svg>
